;Sliced by ideaMaker 4.2.3.5680, 2022-06-15 11:51:31 UTC-0500
;Dimension: 305.000 305.000 305.000 0.400
;Plate Shape: 0
;Origin Center: 0
;Extruder Offset #1: 25.000 0.000
;Filament Diameter #1: 1.750
;Filament Diameter #2: 1.750
;Filament Compensation #1: 94.00
;Filament Compensation #2: 100.00
;Filament Density #1: 1240.00
;Filament Density #2: 1240.00
;Filament Type #1: PLA
;Filament Type #2: 
;Filament Name #1: [Raise3D] PLA 1.75mm
;Filament Name #2: 
;Firmware: Marlin
;Bounding Box: 115.520 189.478 129.975 175.025 0.000 7.820
;Model Gap: 0.200
M221 T0 S94.00
M140 S60.00
M104 T0 S215.00
M109 T0 S215.00
T0
M190 S60.00
G21
G90
M82
M107
G28 X0 Y0
G28 Z0
G1 Z15.0 F300
G92 E0
G1 F140 E29
G1 X20 Y0 F140 E30
G92 E0
G1 F9000.0
M117 Printing...
M1001
;TOTAL_NUM: 1
;PRINTING_TIME: 0
;REMAINING_TIME: 2615
M106 S0
;LAYER:-2
;Z:0.500
;HEIGHT:0.500
;PRINTING: NON-OBJECT
;PRINTING_ID: -1
G0 F9000 X117.340 Y131.838
G0 F300 Z0.500
;TYPE:RAFT
;WIDTH:0.800
G1 F480 X117.817 Y131.415 E0.1060
G1 X118.241 Y131.118 E0.1921
G1 X118.537 Y130.948 E0.2489
G1 X118.980 Y130.742 E0.3301
G1 X119.465 Y130.573 E0.4155
G1 X120.083 Y130.438 E0.5207
G1 X120.914 Y130.375 E0.6593
G1 X184.094 Y130.376 E11.1662
G1 X184.972 Y130.448 E11.3127
G1 X185.509 Y130.568 E11.4042
G1 X186.005 Y130.737 E11.4914
G1 X186.389 Y130.913 E11.5616
G1 X186.884 Y131.199 E11.6567
G1 X187.297 Y131.505 E11.7422
G1 X187.572 Y131.750 E11.8034
G1 X187.897 Y132.095 E11.8822
G1 X188.222 Y132.517 E11.9708
G1 X188.544 Y133.061 E12.0759
G1 X188.742 Y133.507 E12.1571
G1 X188.909 Y134.011 E12.2454
G1 X189.007 Y134.473 E12.3239
G1 X189.078 Y135.263 E12.4558
G1 X189.076 Y169.750 E18.1910
G1 X189.023 Y170.425 E18.3036
G1 X188.884 Y171.070 E18.4134
G1 X188.779 Y171.392 E18.4697
G1 X188.620 Y171.779 E18.5393
G1 X188.367 Y172.252 E18.6285
G1 X188.083 Y172.674 E18.7131
G1 X187.661 Y173.161 E18.8202
G1 X187.183 Y173.585 E18.9265
G1 X186.759 Y173.882 E19.0126
G1 X186.449 Y174.059 E19.0719
G1 X186.024 Y174.256 E19.1498
G1 X185.514 Y174.434 E19.2397
G1 X184.858 Y174.572 E19.3512
G1 X184.118 Y174.624 E19.4745
G1 X120.911 Y174.625 E29.9859
G1 X120.037 Y174.556 E30.1317
G1 X119.598 Y174.462 E30.2063
G1 X119.093 Y174.301 E30.2945
G1 X118.608 Y174.086 E30.3827
G1 X118.114 Y173.799 E30.4777
G1 X117.697 Y173.490 E30.5640
G1 X117.495 Y173.313 E30.6087
G1 X117.099 Y172.899 E30.7040
G1 X116.691 Y172.350 E30.8177
G1 X116.453 Y171.932 E30.8977
G1 X116.257 Y171.491 E30.9780
G1 X116.094 Y170.997 E31.0645
G1 X115.975 Y170.420 E31.1625
G1 X115.920 Y169.660 E31.2892
G1 X115.924 Y135.250 E37.0116
G1 X115.977 Y134.575 E37.1242
G1 X116.116 Y133.930 E37.2339
G1 X116.218 Y133.616 E37.2888
G1 X116.391 Y133.198 E37.3640
G1 X116.628 Y132.755 E37.4476
G1 X116.917 Y132.326 E37.5336
G1 X117.340 Y131.838 E37.6410
G0 F9000 X117.564 Y132.011
G1 F480 X117.564 Y172.980 E44.4542
G0 F9000 X119.988 Y174.259
G1 F480 X119.988 Y130.745 E51.6906
G0 F9000 X122.412 Y130.656
G1 F480 X122.412 Y174.345 E58.9561
G0 F9000 X124.836 Y174.345
G1 F480 X124.836 Y130.656 E66.2216
G0 F9000 X127.260 Y130.656
G1 F480 X127.260 Y174.345 E73.4871
G0 F9000 X129.684 Y174.345
G1 F480 X129.684 Y130.656 E80.7526
G0 F9000 X132.108 Y130.656
G1 F480 X132.108 Y174.345 E88.0181
G0 F9000 X134.532 Y174.345
G1 F480 X134.532 Y130.656 E95.2837
G0 F9000 X136.956 Y130.656
G1 F480 X136.956 Y174.345 E102.5492
G0 F9000 X139.380 Y174.345
G1 F480 X139.380 Y130.656 E109.8147
G0 F9000 X141.804 Y130.656
G1 F480 X141.804 Y174.345 E117.0802
G0 F9000 X144.228 Y174.345
G1 F480 X144.228 Y130.656 E124.3457
G0 F9000 X146.652 Y130.656
G1 F480 X146.652 Y174.345 E131.6112
G0 F9000 X149.076 Y174.345
G1 F480 X149.076 Y130.656 E138.8767
G0 F9000 X151.500 Y130.656
G1 F480 X151.500 Y174.345 E146.1422
G0 F9000 X153.924 Y174.345
G1 F480 X153.924 Y130.656 E153.4077
G0 F9000 X156.348 Y130.656
G1 F480 X156.348 Y174.345 E160.6732
G0 F9000 X158.772 Y174.345
G1 F480 X158.772 Y130.656 E167.9388
G0 F9000 X161.196 Y130.656
G1 F480 X161.196 Y174.345 E175.2043
G0 F9000 X163.620 Y174.345
G1 F480 X163.620 Y130.656 E182.4698
G0 F9000 X166.044 Y130.656
G1 F480 X166.044 Y174.345 E189.7353
G0 F9000 X168.468 Y174.345
G1 F480 X168.468 Y130.656 E197.0008
G0 F9000 X170.892 Y130.656
G1 F480 X170.892 Y174.345 E204.2663
G0 F9000 X173.316 Y174.345
G1 F480 X173.316 Y130.656 E211.5318
G0 F9000 X175.740 Y130.656
G1 F480 X175.740 Y174.345 E218.7973
G0 F9000 X178.164 Y174.345
G1 F480 X178.164 Y130.656 E226.0628
G0 F9000 X180.588 Y130.656
G1 F480 X180.588 Y174.345 E233.3284
G0 F9000 X183.012 Y174.345
G1 F480 X183.012 Y130.656 E240.5939
G0 F9000 X185.436 Y130.840
G1 F480 X185.436 Y174.165 E247.7988
G0 F9000 X187.860 Y172.504
G1 F480 X187.860 Y132.506 E254.4505
;PRINTING_TIME: 195
;REMAINING_TIME: 2419
M106 S255
;LAYER:-2
;Z:1.000
;HEIGHT:0.500
;PRINTING: NON-OBJECT
;PRINTING_ID: -1
G0 F300 Z1.000
G0 F9000 X187.897 Y132.095
;TYPE:RAFT
;WIDTH:0.800
G1 F960 X188.222 Y132.517 E254.5391
G1 X188.544 Y133.061 E254.6442
G1 X188.742 Y133.507 E254.7254
G1 X188.909 Y134.011 E254.8137
G1 X189.007 Y134.473 E254.8922
G1 X189.078 Y135.263 E255.0241
G1 X189.076 Y169.750 E260.7593
G1 X189.023 Y170.425 E260.8719
G1 X188.884 Y171.070 E260.9817
G1 X188.779 Y171.392 E261.0380
G1 X188.620 Y171.779 E261.1076
G1 X188.367 Y172.252 E261.1968
G1 X188.083 Y172.674 E261.2814
G1 X187.661 Y173.161 E261.3885
G1 X187.183 Y173.585 E261.4948
G1 X186.759 Y173.882 E261.5809
G1 X186.449 Y174.059 E261.6402
G1 X186.024 Y174.256 E261.7181
G1 X185.514 Y174.434 E261.8080
G1 X184.858 Y174.572 E261.9195
G1 X184.118 Y174.624 E262.0428
G1 X120.911 Y174.625 E272.5542
G1 X120.037 Y174.556 E272.7000
G1 X119.598 Y174.462 E272.7747
G1 X119.093 Y174.301 E272.8628
G1 X118.608 Y174.086 E272.9510
G1 X118.114 Y173.799 E273.0460
G1 X117.697 Y173.490 E273.1323
G1 X117.495 Y173.313 E273.1770
G1 X117.099 Y172.899 E273.2723
G1 X116.691 Y172.350 E273.3860
G1 X116.453 Y171.932 E273.4660
G1 X116.257 Y171.491 E273.5463
G1 X116.094 Y170.997 E273.6328
G1 X115.975 Y170.420 E273.7308
G1 X115.920 Y169.660 E273.8575
G1 X115.924 Y135.250 E279.5799
G1 X115.977 Y134.575 E279.6925
G1 X116.116 Y133.930 E279.8022
G1 X116.218 Y133.616 E279.8571
G1 X116.391 Y133.198 E279.9324
G1 X116.628 Y132.755 E280.0159
G1 X116.917 Y132.326 E280.1019
G1 X117.340 Y131.838 E280.2093
G1 X117.817 Y131.415 E280.3153
G1 X118.241 Y131.118 E280.4014
G1 X118.537 Y130.948 E280.4582
G1 X118.980 Y130.742 E280.5395
G1 X119.465 Y130.573 E280.6249
G1 X120.083 Y130.438 E280.7301
G1 X120.914 Y130.375 E280.8687
G1 X184.094 Y130.376 E291.3755
G1 X184.972 Y130.448 E291.5220
G1 X185.509 Y130.568 E291.6135
G1 X186.005 Y130.737 E291.7007
G1 X186.389 Y130.913 E291.7709
G1 X186.884 Y131.199 E291.8660
G1 X187.297 Y131.505 E291.9515
G1 X187.572 Y131.750 E292.0127
G1 X187.897 Y132.095 E292.0916
G0 F9000 X187.860 Y132.506
G1 F960 X187.860 Y172.504 E298.7432
G0 F9000 X185.436 Y174.165
G1 F960 X185.436 Y130.840 E305.9482
G0 F9000 X183.012 Y130.656
G1 F960 X183.012 Y174.345 E313.2137
G0 F9000 X180.588 Y174.345
G1 F960 X180.588 Y130.656 E320.4792
G0 F9000 X178.164 Y130.656
G1 F960 X178.164 Y174.345 E327.7448
G0 F9000 X175.740 Y174.345
G1 F960 X175.740 Y130.656 E335.0103
G0 F9000 X173.316 Y130.656
G1 F960 X173.316 Y174.345 E342.2758
G0 F9000 X170.892 Y174.345
G1 F960 X170.892 Y130.656 E349.5413
G0 F9000 X168.468 Y130.656
G1 F960 X168.468 Y174.345 E356.8068
G0 F9000 X166.044 Y174.345
G1 F960 X166.044 Y130.656 E364.0723
G0 F9000 X163.620 Y130.656
G1 F960 X163.620 Y174.345 E371.3378
G0 F9000 X161.196 Y174.345
G1 F960 X161.196 Y130.656 E378.6033
G0 F9000 X158.772 Y130.656
G1 F960 X158.772 Y174.345 E385.8688
G0 F9000 X156.348 Y174.345
G1 F960 X156.348 Y130.656 E393.1343
G0 F9000 X153.924 Y130.656
G1 F960 X153.924 Y174.345 E400.3999
G0 F9000 X151.500 Y174.345
G1 F960 X151.500 Y130.656 E407.6654
G0 F9000 X149.076 Y130.656
G1 F960 X149.076 Y174.345 E414.9309
G0 F9000 X146.652 Y174.345
G1 F960 X146.652 Y130.656 E422.1964
G0 F9000 X144.228 Y130.656
G1 F960 X144.228 Y174.345 E429.4619
G0 F9000 X141.804 Y174.345
G1 F960 X141.804 Y130.656 E436.7274
G0 F9000 X139.380 Y130.656
G1 F960 X139.380 Y174.345 E443.9929
G0 F9000 X136.956 Y174.345
G1 F960 X136.956 Y130.656 E451.2584
G0 F9000 X134.532 Y130.656
G1 F960 X134.532 Y174.345 E458.5239
G0 F9000 X132.108 Y174.345
G1 F960 X132.108 Y130.656 E465.7894
G0 F9000 X129.684 Y130.656
G1 F960 X129.684 Y174.345 E473.0550
G0 F9000 X127.260 Y174.345
G1 F960 X127.260 Y130.656 E480.3205
G0 F9000 X124.836 Y130.656
G1 F960 X124.836 Y174.345 E487.5860
G0 F9000 X122.412 Y174.345
G1 F960 X122.412 Y130.656 E494.8515
G0 F9000 X119.988 Y130.745
G1 F960 X119.988 Y174.259 E502.0879
G0 F9000 X117.564 Y172.980
G1 F960 X117.564 Y132.011 E508.9011
;PRINTING_TIME: 294
;REMAINING_TIME: 2321
;LAYER:-1
;Z:1.380
;HEIGHT:0.380
;PRINTING: NON-OBJECT
;PRINTING_ID: -1
G0 F300 Z1.380
G0 F9000 X118.204 Y131.400
;TYPE:RAFT
;WIDTH:0.600
G1 F1800 X186.803 Y131.400 E515.4037
G0 F9000 X188.022 Y132.600
G1 F1800 X116.985 Y132.600 E522.1374
G0 F9000 X116.378 Y133.800
G1 F1800 X188.618 Y133.800 E528.9851
G0 F9000 X188.844 Y135.000
G1 F1800 X116.154 Y135.000 E535.8755
G0 F9000 X116.133 Y136.200
G1 F1800 X188.867 Y136.200 E542.7700
G0 F9000 X188.867 Y137.400
G1 F1800 X116.133 Y137.400 E549.6646
G0 F9000 X116.133 Y138.600
G1 F1800 X188.867 Y138.600 E556.5591
G0 F9000 X188.867 Y139.800
G1 F1800 X116.133 Y139.800 E563.4537
G0 F9000 X116.133 Y141.000
G1 F1800 X188.867 Y141.000 E570.3483
G0 F9000 X188.867 Y142.200
G1 F1800 X116.133 Y142.200 E577.2428
G0 F9000 X116.133 Y143.400
G1 F1800 X188.867 Y143.400 E584.1374
G0 F9000 X188.867 Y144.600
G1 F1800 X116.132 Y144.600 E591.0320
G0 F9000 X116.132 Y145.800
G1 F1800 X188.867 Y145.800 E597.9267
G0 F9000 X188.867 Y147.000
G1 F1800 X116.132 Y147.000 E604.8213
G0 F9000 X116.132 Y148.200
G1 F1800 X188.867 Y148.200 E611.7160
G0 F9000 X188.867 Y149.400
G1 F1800 X116.132 Y149.400 E618.6106
G0 F9000 X116.132 Y150.600
G1 F1800 X188.867 Y150.600 E625.5053
G0 F9000 X188.867 Y151.800
G1 F1800 X116.132 Y151.800 E632.3999
G0 F9000 X116.131 Y153.000
G1 F1800 X188.866 Y153.000 E639.2946
G0 F9000 X188.866 Y154.200
G1 F1800 X116.131 Y154.200 E646.1892
G0 F9000 X116.131 Y155.400
G1 F1800 X188.866 Y155.400 E653.0839
G0 F9000 X188.866 Y156.600
G1 F1800 X116.131 Y156.600 E659.9785
G0 F9000 X116.131 Y157.800
G1 F1800 X188.866 Y157.800 E666.8732
G0 F9000 X188.866 Y159.000
G1 F1800 X116.131 Y159.000 E673.7678
G0 F9000 X116.131 Y160.200
G1 F1800 X188.866 Y160.200 E680.6625
G0 F9000 X188.866 Y161.400
G1 F1800 X116.130 Y161.400 E687.5572
G0 F9000 X116.130 Y162.600
G1 F1800 X188.866 Y162.600 E694.4520
G0 F9000 X188.866 Y163.800
G1 F1800 X116.130 Y163.800 E701.3467
G0 F9000 X116.130 Y165.000
G1 F1800 X188.866 Y165.000 E708.2415
G0 F9000 X188.866 Y166.200
G1 F1800 X116.130 Y166.200 E715.1362
G0 F9000 X116.130 Y167.400
G1 F1800 X188.866 Y167.400 E722.0310
G0 F9000 X188.866 Y168.600
G1 F1800 X116.130 Y168.600 E728.9257
G0 F9000 X116.139 Y169.800
G1 F1800 X188.861 Y169.800 E735.8191
G0 F9000 X188.684 Y171.000
G1 F1800 X116.315 Y171.000 E742.6791
G0 F9000 X116.845 Y172.200
G1 F1800 X188.148 Y172.200 E749.4380
G0 F9000 X187.076 Y173.400
G1 F1800 X117.927 Y173.400 E755.9927
;PRINTING_TIME: 384
;REMAINING_TIME: 2231
;LAYER:-1
;Z:1.600
;HEIGHT:0.220
;PRINTING: NON-OBJECT
;PRINTING_ID: -1
G0 F300 Z1.600
G0 F9000 X117.770 Y173.370
;TYPE:RAFT
;WIDTH:0.400
G1 F3600 X116.144 Y170.554 E756.1985
G0 F9000 X116.058 Y169.463
G1 F3600 X118.646 Y173.946 E756.5262
G0 F9000 X119.358 Y174.237
G1 F3600 X116.059 Y168.522 E756.9438
G0 F9000 X116.058 Y167.579
G1 F3600 X119.997 Y174.402 E757.4425
G0 F9000 X120.573 Y174.457
G1 F3600 X116.058 Y166.637 E758.0140
G0 F9000 X116.059 Y165.696
G1 F3600 X121.132 Y174.484 E758.6563
G0 F9000 X121.676 Y174.484
G1 F3600 X116.059 Y164.754 E759.3674
G0 F9000 X116.059 Y163.813
G1 F3600 X122.220 Y174.484 E760.1473
G0 F9000 X122.764 Y174.484
G1 F3600 X116.059 Y162.870 E760.9961
G0 F9000 X116.059 Y161.929
G1 F3600 X123.308 Y174.484 E761.9137
G0 F9000 X123.852 Y174.484
G1 F3600 X116.059 Y160.987 E762.9002
G0 F9000 X116.060 Y160.046
G1 F3600 X124.396 Y174.484 E763.9554
G0 F9000 X124.940 Y174.484
G1 F3600 X116.060 Y159.103 E765.0795
G0 F9000 X116.060 Y158.162
G1 F3600 X125.483 Y174.484 E766.2724
G0 F9000 X126.027 Y174.484
G1 F3600 X116.060 Y157.220 E767.5341
G0 F9000 X116.060 Y156.279
G1 F3600 X126.571 Y174.484 E768.8647
G0 F9000 X127.115 Y174.483
G1 F3600 X116.060 Y155.336 E770.2640
G0 F9000 X116.060 Y154.394
G1 F3600 X127.659 Y174.483 E771.7323
G0 F9000 X128.202 Y174.483
G1 F3600 X116.060 Y153.453 E773.2693
G0 F9000 X116.060 Y152.511
G1 F3600 X128.746 Y174.484 E774.8752
G0 F9000 X129.290 Y174.484
G1 F3600 X116.061 Y151.569 E776.5499
G0 F9000 X116.061 Y150.627
G1 F3600 X129.834 Y174.484 E778.2935
G0 F9000 X130.378 Y174.484
G1 F3600 X116.061 Y149.686 E780.1059
G0 F9000 X116.061 Y148.744
G1 F3600 X130.922 Y174.484 E781.9871
G0 F9000 X131.466 Y174.484
G1 F3600 X116.061 Y147.802 E783.9372
G0 F9000 X116.061 Y146.860
G1 F3600 X132.010 Y174.484 E785.9561
G0 F9000 X132.554 Y174.484
G1 F3600 X116.062 Y145.919 E788.0438
G0 F9000 X116.061 Y144.977
G1 F3600 X133.097 Y174.484 E790.2003
G0 F9000 X133.641 Y174.484
G1 F3600 X116.061 Y144.035 E792.4257
G0 F9000 X116.062 Y143.093
G1 F3600 X134.185 Y174.483 E794.7199
G0 F9000 X134.729 Y174.483
G1 F3600 X116.062 Y142.151 E797.0829
G0 F9000 X116.062 Y141.210
G1 F3600 X135.273 Y174.483 E799.5147
G0 F9000 X135.816 Y174.483
G1 F3600 X116.062 Y140.268 E802.0153
G0 F9000 X116.062 Y139.326
G1 F3600 X136.360 Y174.483 E804.5848
G0 F9000 X136.904 Y174.484
G1 F3600 X116.062 Y138.384 E807.2232
G0 F9000 X116.063 Y137.443
G1 F3600 X137.448 Y174.484 E809.9303
G0 F9000 X137.992 Y174.484
G1 F3600 X116.063 Y136.501 E812.7063
G0 F9000 X116.063 Y135.559
G1 F3600 X138.536 Y174.484 E815.5512
G0 F9000 X139.080 Y174.484
G1 F3600 X116.107 Y134.693 E818.4593
G0 F9000 X116.245 Y133.990
G1 F3600 X139.624 Y174.484 E821.4188
G0 F9000 X140.168 Y174.484
G1 F3600 X116.453 Y133.409 E824.4208
G0 F9000 X116.705 Y132.903
G1 F3600 X140.712 Y174.484 E827.4598
G0 F9000 X141.255 Y174.483
G1 F3600 X116.993 Y132.460 E830.5311
G0 F9000 X117.315 Y132.077
G1 F3600 X141.799 Y174.483 E833.6304
G0 F9000 X142.343 Y174.483
G1 F3600 X117.663 Y131.737 E836.7545
G0 F9000 X118.032 Y131.434
G1 F3600 X142.887 Y174.483 E839.9008
G0 F9000 X143.431 Y174.483
G1 F3600 X118.425 Y131.173 E843.0662
G0 F9000 X118.845 Y130.958
G1 F3600 X143.974 Y174.483 E846.2472
G0 F9000 X144.518 Y174.483
G1 F3600 X119.288 Y130.783 E849.4411
G0 F9000 X119.756 Y130.652
G1 F3600 X145.062 Y174.484 E852.6445
G0 F9000 X145.606 Y174.484
G1 F3600 X120.250 Y130.565 E855.8544
G0 F9000 X120.771 Y130.525
G1 F3600 X146.150 Y174.484 E859.0671
G0 F9000 X146.694 Y174.484
G1 F3600 X121.308 Y130.515 E862.2806
G0 F9000 X121.852 Y130.515
G1 F3600 X147.238 Y174.484 E865.4942
G0 F9000 X147.781 Y174.483
G1 F3600 X122.396 Y130.515 E868.7076
G0 F9000 X122.940 Y130.515
G1 F3600 X148.325 Y174.483 E871.9210
G0 F9000 X148.869 Y174.483
G1 F3600 X123.484 Y130.515 E875.1345
G0 F9000 X124.028 Y130.515
G1 F3600 X149.413 Y174.483 E878.3479
G0 F9000 X149.957 Y174.483
G1 F3600 X124.572 Y130.515 E881.5613
G0 F9000 X125.116 Y130.515
G1 F3600 X150.501 Y174.483 E884.7748
G0 F9000 X151.045 Y174.483
G1 F3600 X125.660 Y130.515 E887.9882
G0 F9000 X126.203 Y130.514
G1 F3600 X151.589 Y174.483 E891.2017
G0 F9000 X152.132 Y174.483
G1 F3600 X126.747 Y130.514 E894.4152
G0 F9000 X127.291 Y130.515
G1 F3600 X152.676 Y174.484 E897.6287
G0 F9000 X153.220 Y174.484
G1 F3600 X127.835 Y130.515 E900.8422
G0 F9000 X128.379 Y130.515
G1 F3600 X153.764 Y174.484 E904.0557
G0 F9000 X154.308 Y174.484
G1 F3600 X128.923 Y130.515 E907.2691
G0 F9000 X129.466 Y130.515
G1 F3600 X154.851 Y174.483 E910.4826
G0 F9000 X155.395 Y174.483
G1 F3600 X130.010 Y130.515 E913.6960
G0 F9000 X130.554 Y130.515
G1 F3600 X155.939 Y174.483 E916.9094
G0 F9000 X156.483 Y174.483
G1 F3600 X131.098 Y130.515 E920.1229
G0 F9000 X131.642 Y130.515
G1 F3600 X157.027 Y174.483 E923.3363
G0 F9000 X157.571 Y174.483
G1 F3600 X132.186 Y130.515 E926.5497
G0 F9000 X132.730 Y130.515
G1 F3600 X158.115 Y174.483 E929.7632
G0 F9000 X158.659 Y174.483
G1 F3600 X133.274 Y130.515 E932.9766
